X:1
T:Though Philomela lost her love
T:Though Philomela lost her love
T:Thomas Morley (1557?-1602)
C:Thomas Morley (1557?-1602)
%%score [ 1 2 3 ]
L:1/8
M:6/4
K:D
V:1 treble nm="Sopran"
V:2 treble nm="Alt"
V:3 treble-8 nm="Tenor"
V:1
 A2 A2 A2 A4 A2 | B4 B2 A4 F2 | G4 A2 B4 E2 | G2 F4 E6 | B6 A6 | =c6 B6 | d2 c2 B2 A4 G2 | %7
w: Though Phi- lo- me- la|lost her love, fresh|notes she war- bleth|yes a- gain,|fa la|la la,|fa la la la, fa|
 F3 G A2 B4 B2 | A3 G F2 E3 D E2 | D12 :: A2 A2 A2 B4 A2 | G4 F2 E4 A2 | ^G3 A B2 A2 A2 =G2 | A12 | %14
w: la la la la, fa|la la la la la la|la.|He is a foole, that|lov- ers prove, and|leaves to sing to live in|paine.|
 A2 A A B2 G2 G G A2 | F2 F F G2 E2 E E F2 | D2 D D E2 C2 A,2 A2 | A6 A6 | A4 F2 E3 D E2 | D12 :| %20
w: Fa la la la la la la la|la la la la la la la la|la la la la la la, fa|la la|la la la la la|la.|
V:2
 F2 F2 F2 F4 F2 | G4 G2 F4 D2 | B,4 E2 ^D3 (B,CD) | E4 ^D2 E6 | D6 D3 E F2 | E4 E2 E3 F G2 | %6
w: Though Phi- lo- me- la|lost her love, fresh|notes she war- bleth _ _|yes a- gain,|fa la la la|la, fa la la la|
 F4 G2 E6 | A3 G F2 G2 D2 D2 | D4 D2 C3 D C2 | D12 :: F2 E2 F2 G4 F2 | E4 D2 C4 =C2 | %12
w: la la la,|fa la la la la, fa|la la la la la|la.|He is a foole, that|lov- ers prove, and|
 B,3 D B,2 =C2 B,2 B,2 | C12 | F2 F F G2 E2 E E C2 | D2 D D E2 C2 C C D2 | %16
w: leaves to sing to live in|paine.|Fa la la la la la la la|la la la la la la la la|
 B,2 B, B, G,2 A,2 C2 F2 | E4 D2 C3 D E2 | F2 D2 D2 C3 D C2 | D12 :| %20
w: la la la la la la, fa|la, fa la la la|la la, fa la la la|la.|
V:3
 d2 d2 d2 d4 d2 | G4 G2 d4 d2 | G4 c2 B4 A2 | E2 B4 E6 | G6 F3 E D2 | A4 A2 G3 F E2 | B6 c6 | %7
w: Though Phi- lo- me- la|lost her love, fresh|notes she war- bleth|yes a- gain,|fa la la la|la, fa la la la|la, Fa|
 d6 G4 G2 | F3 E D2 A4 A2 | D12 :: d2 c2 d2 G4 A2 | =c4 d2 A4 A2 | E3 F ^G2 A2 E2 E2 | A12 | %14
w: la la, fa|la la la la la|la.|He is a foole, that|lov- ers prove, and|leaves to sing to live in|paine.|
 d2 d d G2 =c2 c c A2 | B2 B B E2 A2 A A D2 | G2 G G E2 A4 D2 | C4 D2 A3 B c2 | d6 A6 | D12 :| %20
w: Fa la la la la la la la|la la la la la la la la|la la la la la la,|fa la la la la|la la|la.|

